X: 1
T: Jim Anderson's Delight
C: Ronnie Cooper (1934-1982)
M: 6/8
L: 1/8
R: jig
F: http://www.thesession.org/tunes/display/7329/comments
K: G
|: g |\
| dGG BAG | d>ef g2f | eAA efg | a>gf g2e \
| dGG BGG | d>ef gfe | d>cB cBA | BGG G2 :|
|: e |\
| d2 g B2g | def g2g | eAA e>fg | a>gf g2e \
|[1 dgg Bgg | d>ef g2e | d>cB c2A | BGG G2 :|
|[2 dGG BGG | def g2e | d>cB cBA | BGG G2 |]

%%sep 1 1 500

